SampleProject/assets/luts/cinematic.cube
# Generated by tools/scripts/make_lut.py (cinematic)
LUT_3D_SIZE 9
DOMAIN_MIN 0.0 0.0 0.0
DOMAIN_MAX 1.0 1.0 1.0
0.000000 0.000000 0.000000
0.088053 0.000000 0.000000
0.207988 0.000000 0.000000
0.349616 0.000000 0.000000
0.502753 0.000000 0.000000
0.657138 0.000000 0.000000
0.802355 0.000000 0.000000
0.927769 0.000000 0.000000
1.000000 0.000000 0.000000
0.000000 0.091619 0.000000
0.079849 0.089255 0.000000
0.201115 0.086020 0.000000
0.344836 0.082187 0.000000
0.500760 0.078028 0.000000
0.658458 0.073825 0.000000
0.807262 0.069862 0.000000
0.936218 0.066433 0.000000
1.000000 0.063840 0.000000
0.000000 0.216281 0.000000
0.069108 0.213923 0.000000
0.192479 0.210675 0.000000
0.339078 0.206808 0.000000
0.498492 0.202602 0.000000
0.660051 0.198343 0.000000
0.812786 0.194324 0.000000
0.945394 0.190847 0.000000
1.000000 0.188225 0.000000
0.000000 0.363176 0.000000
0.056723 0.360834 0.000000
0.182765 0.357578 0.000000
0.332786 0.353685 0.000000
0.496134 0.349439 0.000000
0.661845 0.345133 0.000000
0.818614 0.341070 0.000000
0.954779 0.337562 0.000000
1.000000 0.334930 0.000000
0.000000 0.521455 0.000000
0.043586 0.519133 0.000000
0.172665 0.515871 0.000000
0.326411 0.511951 0.000000
0.493878 0.507666 0.000000
0.663773 0.503318 0.000000
0.824440 0.499217 0.000000
0.963863 0.495685 0.000000
1.000000 0.493053 0.000000
0.000000 0.680189 0.000000
0.030601 0.677880 0.000000
0.162877 0.674603 0.000000
0.320412 0.670649 0.000000
0.491927 0.666318 0.000000
0.665779 0.661922 0.000000
0.829968 0.657780 0.000000
0.972148 0.654222 0.000000
1.000000 0.651586 0.000000
0.000000 0.828341 0.000000
0.018681 0.826027 0.000000
0.154110 0.822716 0.000000
0.315259 0.818709 0.000000
0.490492 0.814317 0.000000
0.667818 0.809859 0.000000
0.834912 0.805663 0.000000
0.979143 0.802066 0.000000
1.000000 0.799413 0.000000
0.000000 0.954767 0.000000
0.008750 0.952415 0.000000
0.147086 0.949042 0.000000
0.311433 0.944958 0.000000
0.489796 0.940481 0.000000
0.669854 0.935940 0.000000
0.838996 0.931671 0.000000
0.984368 0.928016 0.000000
1.000000 0.925323 0.000000
0.000000 1.000000 0.000000
0.001741 1.000000 0.000000
0.142532 1.000000 0.000000
0.309421 1.000000 0.000000
0.490068 1.000000 0.000000
0.671857 1.000000 0.000000
0.841951 1.000000 0.000000
0.987350 1.000000 0.000000
1.000000 1.000000 0.000000
0.000000 0.000000 0.109476
0.087103 0.000000 0.107052
0.207133 0.000000 0.103702
0.348931 0.000000 0.099702
0.502313 0.000000 0.095328
0.657003 0.000000 0.090861
0.802563 0.000000 0.086585
0.928327 0.000000 0.082788
1.000000 0.000000 0.079770
0.000000 0.090648 0.100172
0.078977 0.088285 0.097507
0.200427 0.085050 0.093909
0.344411 0.081213 0.089654
0.500664 0.077051 0.085021
0.658735 0.072842 0.080294
0.807930 0.068875 0.075764
0.937258 0.065441 0.071730
1.000000 0.062846 0.068499
0.000000 0.215334 0.086995
0.068304 0.212978 0.084115
0.191927 0.209729 0.080293
0.338856 0.205860 0.075806
0.498656 0.201651 0.070939
0.660632 0.197387 0.065981
0.813780 0.193364 0.061233
0.946761 0.189884 0.057002
1.000000 0.187261 0.053605
0.000000 0.362266 0.071140
0.055974 0.359926 0.068076
0.182317 0.356670 0.064058
0.332710 0.352774 0.059369
0.496476 0.348524 0.054300
0.662619 0.344214 0.049149
0.819799 0.340147 0.044224
0.956316 0.336637 0.039843
1.000000 0.334005 0.036335
0.000000 0.520590 0.053805
0.042881 0.518270 0.050593
0.172286 0.515006 0.046415
0.326422 0.511084 0.041562
0.494313 0.506794 0.036331
0.664629 0.502442 0.031032
0.825679 0.498337 0.025980
0.965414 0.494803 0.021504
1.000000 0.492170 0.017941
0.000000 0.679370 0.036198
0.029926 0.677062 0.032878
0.162533 0.673783 0.028582
0.320452 0.669824 0.023610
0.492369 0.665488 0.018268
0.666605 0.661087 0.012873
0.831125 0.656941 0.007753
0.973554 0.653380 0.003243
1.000000 0.650743 0.000000
0.000000 0.827564 0.019535
0.018022 0.825248 0.016153
0.153766 0.821933 0.011790
0.315268 0.817921 0.006751
0.490854 0.813522 0.001355
0.668500 0.809057 0.000000
0.835849 0.804855 0.000000
0.980245 0.801255 0.000000
1.000000 0.798599 0.000000
0.000000 0.954019 0.005043
0.008092 0.951664 0.001652
0.146706 0.948284 0.000000
0.311349 0.944192 0.000000
0.489990 0.939706 0.000000
0.670278 0.935157 0.000000
0.839575 0.930881 0.000000
0.985007 0.927221 0.000000
1.000000 0.924524 0.000000
0.000000 1.000000 0.000000
0.001067 1.000000 0.000000
0.142078 1.000000 0.000000
0.309182 1.000000 0.000000
0.490006 1.000000 0.000000
0.671908 1.000000 0.000000
0.842031 1.000000 0.000000
0.987365 1.000000 0.000000
1.000000 1.000000 0.000000
0.000000 0.000000 0.258245
0.085810 0.000000 0.255679
0.205945 0.000000 0.252091
0.347926 0.000000 0.247764
0.501563 0.000000 0.242980
0.656567 0.000000 0.238026
0.802477 0.000000 0.233190
0.928597 0.000000 0.228769
1.000000 0.000000 0.225067
0.000000 0.089329 0.248104
0.077764 0.086968 0.245005
0.199408 0.083733 0.240896
0.343663 0.079896 0.236060
0.500254 0.075731 0.230780
0.658707 0.071519 0.225347
0.808297 0.067548 0.220059
0.938000 0.064113 0.215221
1.000000 0.061518 0.211146
0.000000 0.214044 0.233189
0.067163 0.211692 0.229645
0.191046 0.208444 0.225101
0.338312 0.204574 0.219840
0.498506 0.200363 0.214152
0.660902 0.196097 0.208334
0.814466 0.192072 0.202692
0.947821 0.188591 0.197539
1.000000 0.185970 0.193201
0.000000 0.361019 0.214902
0.054895 0.358684 0.211008
0.181542 0.355429 0.206119
0.332313 0.351533 0.200527
0.496501 0.347281 0.194526
0.663078 0.342969 0.188422
0.820670 0.338901 0.182530
0.957539 0.335390 0.177174
1.000000 0.332761 0.172688
0.000000 0.519395 0.194652
0.041851 0.517079 0.190504
0.171585 0.513817 0.185371
0.326115 0.509894 0.179546
0.494430 0.505602 0.173336
0.665167 0.501247 0.167055
0.826599 0.497141 0.161026
0.966642 0.493607 0.155583
1.000000 0.490977 0.151069
0.000000 0.678229 0.173854
0.028933 0.675924 0.169557
0.161872 0.672645 0.164283
0.320175 0.668685 0.158335
0.492491 0.664346 0.152028
0.667108 0.659941 0.145685
0.831956 0.655792 0.139639
0.974628 0.652231 0.134234
1.000000 0.649595 0.129818
0.000000 0.826472 0.153934
0.017051 0.824156 0.149597
0.153109 0.820840 0.144294
0.314960 0.816823 0.138339
0.490895 0.812420 0.132055
0.668855 0.807950 0.125776
0.836452 0.803745 0.119843
0.981006 0.800142 0.114606
1.000000 0.797486 0.110421
0.000000 0.952963 0.136329
0.007126 0.950605 0.132067
0.146015 0.947221 0.126855
0.310948 0.943123 0.121016
0.489861 0.938631 0.114885
0.670369 0.934075 0.108802
0.839810 0.929793 0.103118
0.985294 0.926128 0.098186
1.000000 0.923427 0.094368
0.000000 1.000000 0.122485
0.000090 1.000000 0.118417
0.141315 1.000000 0.113421
0.308626 1.000000 0.107831
0.489617 1.000000 0.101988
0.671619 1.000000 0.096243
0.841758 1.000000 0.090951
0.987014 1.000000 0.086469
1.000000 1.000000 0.083159
0.000000 0.000000 0.433156
0.084292 0.000000 0.430355
0.204543 0.000000 0.426426
0.346716 0.000000 0.421657
0.500619 0.000000 0.416338
0.655947 0.000000 0.410760
0.802214 0.000000 0.405220
0.928694 0.000000 0.400023
1.000000 0.000000 0.395479
0.000000 0.087780 0.421824
0.076328 0.085422 0.418161
0.198174 0.082188 0.413402
0.342710 0.078351 0.407837
0.499647 0.074185 0.401756
0.658487 0.069972 0.395457
0.808477 0.065999 0.389245
0.938558 0.062563 0.383432
1.000000 0.059969 0.378339
0.000000 0.212529 0.404700
0.065802 0.210181 0.400336
0.189951 0.206935 0.394907
0.337561 0.203067 0.388704
0.498154 0.198855 0.382024
0.660975 0.194588 0.375170
0.814957 0.190562 0.368457
0.948687 0.187083 0.362205
1.000000 0.184464 0.356747
0.000000 0.359552 0.383433
0.053599 0.357222 0.378535
0.180556 0.353970 0.372600
0.331709 0.350075 0.365926
0.496322 0.345823 0.358815
0.663335 0.341511 0.351581
0.821337 0.337443 0.344545
0.958556 0.333934 0.338038
1.000000 0.331308 0.332403
0.000000 0.517985 0.359676
0.040608 0.515675 0.354415
0.170675 0.512415 0.348147
0.325599 0.508492 0.341176
0.494339 0.504201 0.333812
0.665495 0.499845 0.326378
0.827306 0.495739 0.319205
0.967654 0.492206 0.312635
1.000000 0.489579 0.307017
0.000000 0.676878 0.335091
0.027730 0.674577 0.329645
0.161002 0.671299 0.323222
0.319688 0.667338 0.316135
0.492402 0.662998 0.308704
0.667396 0.658592 0.301261
0.832565 0.654442 0.294146
0.975475 0.650880 0.287709
1.000000 0.648247 0.282308
0.000000 0.825173 0.311350
0.015873 0.822860 0.305901
0.152244 0.819542 0.299510
0.314441 0.815524 0.292497
0.490720 0.811117 0.285194
0.668987 0.806644 0.277940
0.836824 0.802435 0.271085
0.981527 0.798831 0.264986
1.000000 0.796174 0.260006
0.000000 0.951704 0.290136
0.005957 0.949345 0.284873
0.145116 0.945958 0.278705
0.310335 0.941854 0.271965
0.489511 0.937356 0.264991
0.670229 0.932794 0.258134
0.839804 0.928507 0.251749
0.985326 0.924837 0.246200
1.000000 0.922134 0.241852
0.000000 1.000000 0.273141
0.000000 1.000000 0.268257
0.140344 1.000000 0.262512
0.307853 1.000000 0.256248
0.488999 1.000000 0.249815
0.671089 1.000000 0.243569
0.841228 1.000000 0.237872
0.986393 1.000000 0.233089
1.000000 1.000000 0.229587
0.000000 0.000000 0.621053
0.082666 0.000000 0.617927
0.203043 0.000000 0.613563
0.345420 0.000000 0.608256
0.499598 0.000000 0.602300
0.655258 0.000000 0.595997
0.801889 0.000000 0.589651
0.928731 0.000000 0.583573
1.000000 0.000000 0.578083
0.000000 0.086118 0.608214
0.074786 0.083763 0.603886
0.196842 0.080532 0.598376
0.341667 0.076695 0.591978
0.498957 0.072529 0.584991
0.658190 0.068314 0.577721
0.808584 0.064341 0.570480
0.939045 0.060905 0.563588
1.000000 0.058313 0.557374
0.000000 0.210903 0.588538
0.064336 0.208561 0.583248
0.188758 0.205319 0.576829
0.336717 0.201452 0.569579
0.497714 0.197241 0.561802
0.660963 0.192974 0.553811
0.815364 0.188948 0.545925
0.949468 0.185470 0.538475
1.000000 0.182855 0.531800
0.000000 0.357978 0.563937
0.052199 0.355655 0.557931
0.179471 0.352406 0.550849
0.331008 0.348513 0.542992
0.496049 0.344262 0.534673
0.663498 0.339950 0.526212
0.821909 0.335883 0.517939
0.959476 0.332376 0.510194
1.000000 0.329754 0.503325
0.000000 0.516472 0.536330
0.039264 0.514167 0.529859
0.169664 0.510911 0.522363
0.324984 0.506989 0.514152
0.494148 0.502698 0.505548
0.665721 0.498342 0.496879
0.827908 0.494236 0.488485
0.968554 0.490705 0.480714
1.000000 0.488083 0.473925
0.000000 0.675426 0.507643
0.026427 0.673130 0.500962
0.160031 0.669854 0.493310
0.319099 0.665893 0.485007
0.492207 0.661551 0.476383
0.667572 0.657144 0.467775
0.833057 0.652993 0.459533
0.976196 0.649432 0.452013
1.000000 0.646802 0.445582
0.000000 0.823776 0.479812
0.014596 0.821465 0.473183
0.151276 0.818147 0.465641
0.313816 0.814126 0.457515
0.490432 0.809716 0.449143
0.668998 0.805239 0.440875
0.837066 0.801029 0.433066
0.981908 0.797423 0.426082
1.000000 0.794767 0.420292
0.000000 0.950346 0.454784
0.004689 0.947987 0.448475
0.144114 0.944596 0.441314
0.309610 0.940487 0.433641
0.489039 0.935983 0.425805
0.669957 0.931416 0.418162
0.839653 0.927123 0.411076
0.985202 0.923450 0.404917
1.000000 0.920744 0.400058
0.000000 1.000000 0.434517
0.000000 1.000000 0.428798
0.139266 1.000000 0.422297
0.306962 1.000000 0.415362
0.488252 1.000000 0.408350
0.670415 1.000000 0.401626
0.840541 1.000000 0.395559
0.985599 1.000000 0.390522
1.000000 1.000000 0.386888
0.000000 0.000000 0.808787
0.081050 0.000000 0.805260
0.201563 0.000000 0.800388
0.344153 0.000000 0.794474
0.498617 0.000000 0.787820
0.654616 0.000000 0.780733
0.801615 0.000000 0.773527
0.928824 0.000000 0.766519
1.000000 0.000000 0.760038
0.000000 0.084460 0.794201
0.073254 0.082109 0.789147
0.195527 0.078880 0.782828
0.340649 0.075044 0.775545
0.498298 0.070878 0.767605
0.657930 0.066662 0.759322
0.808731 0.062688 0.751013
0.939571 0.059253 0.743009
1.000000 0.056663 0.735646
0.000000 0.209284 0.771785
0.062880 0.206947 0.765524
0.187580 0.203708 0.758074
0.335894 0.199843 0.749741
0.497298 0.195632 0.740836
0.660978 0.191366 0.731679
0.815798 0.187340 0.722599
0.950273 0.183864 0.713933
1.000000 0.181253 0.706029
0.000000 0.356412 0.743716
0.050809 0.354094 0.736573
0.178398 0.350850 0.728317
0.330323 0.346958 0.719257
0.495792 0.342708 0.709715
0.663676 0.338397 0.700017
0.822495 0.334330 0.690501
0.960405 0.330826 0.681515
1.000000 0.328209 0.673417
0.000000 0.514966 0.712178
0.037928 0.512667 0.704482
0.168663 0.509414 0.695749
0.324379 0.505494 0.686295
0.493964 0.501203 0.676451
0.665951 0.496847 0.666552
0.828508 0.492742 0.656946
0.969447 0.489212 0.647989
1.000000 0.486594 0.640048
0.000000 0.673981 0.679361
0.025131 0.671690 0.671447
0.159066 0.668415 0.662573
0.318512 0.664454 0.653066
0.492010 0.660112 0.643264
0.667740 0.655702 0.633513
0.833533 0.651551 0.624169
0.976894 0.647991 0.615597
1.000000 0.645363 0.608171
0.000000 0.822385 0.647465
0.013324 0.820076 0.639674
0.150311 0.816757 0.631004
0.313187 0.812734 0.621792
0.490133 0.808320 0.612385
0.668988 0.803840 0.603138
0.837278 0.799627 0.594417
0.982248 0.796019 0.586594
1.000000 0.793363 0.580046
0.000000 0.948994 0.618703
0.003424 0.946633 0.611380
0.143109 0.943238 0.603265
0.308874 0.939124 0.594704
0.488547 0.934614 0.586053
0.669653 0.930041 0.577677
0.839457 0.925743 0.569947
0.985021 0.922065 0.563241
1.000000 0.919355 0.557939
0.000000 1.000000 0.595294
0.000000 1.000000 0.588792
0.138180 1.000000 0.581588
0.306053 1.000000 0.574041
0.487474 1.000000 0.566515
0.669695 1.000000 0.559382
0.839793 1.000000 0.553019
0.984730 1.000000 0.547806
1.000000 1.000000 0.544122
0.000000 0.000000 0.983229
0.079561 0.000000 0.979246
0.200219 0.000000 0.973826
0.343032 0.000000 0.967275
0.497789 0.000000 0.959904
0.654135 0.000000 0.952027
0.801508 0.000000 0.943964
0.929084 0.000000 0.936040
1.000000 0.000000 0.928590
0.000000 0.082922 0.966763
0.071848 0.080575 0.960970
0.194346 0.077349 0.953838
0.339771 0.073513 0.945678
0.497785 0.069346 0.936802
0.657820 0.065130 0.927531
0.809029 0.061154 0.918190
0.940248 0.057719 0.909117
1.000000 0.055132 0.900655
0.000000 0.207786 0.941603
0.061548 0.205454 0.934391
0.186531 0.202218 0.925940
0.335203 0.198354 0.916562
0.497017 0.194143 0.906575
0.661128 0.189876 0.896306
0.816367 0.185850 0.886093
0.951212 0.182375 0.876278
1.000000 0.179768 0.867219
0.000000 0.354965 0.910171
0.049541 0.352654 0.901939
0.177449 0.349412 0.892565
0.329763 0.345522 0.882367
0.495659 0.341272 0.871670
0.663977 0.336960 0.860810
0.823200 0.332893 0.850134
0.961448 0.329390 0.839994
1.000000 0.326777 0.830757
0.000000 0.513578 0.874895
0.036710 0.511285 0.866046
0.167779 0.508034 0.856153
0.323889 0.504114 0.845540
0.493895 0.499822 0.834543
0.666291 0.495465 0.823507
0.829211 0.491360 0.812786
0.970437 0.487832 0.802744
1.000000 0.485216 0.793754
0.000000 0.672652 0.838212
0.023949 0.670364 0.829155
0.158213 0.667090 0.819153
0.318034 0.663128 0.808540
0.491915 0.658783 0.797661
0.668003 0.654371 0.786870
0.834096 0.650218 0.776531
0.977669 0.646658 0.767016
1.000000 0.644032 0.758704
0.000000 0.821105 0.802570
0.012162 0.818797 0.793718
0.149451 0.815477 0.784025
0.312656 0.811450 0.773834
0.489924 0.807032 0.763500
0.669060 0.802548 0.753385
0.837558 0.798330 0.743862
0.982646 0.794720 0.735310
1.000000 0.792063 0.728114
0.000000 0.947749 0.770425
0.002264 0.945386 0.762199
0.142202 0.941986 0.753239
0.308227 0.937865 0.743900
0.488133 0.933348 0.734545
0.669414 0.928768 0.725546
0.839314 0.924463 0.717281
0.984878 0.920780 0.710136
1.000000 0.918066 0.704495
0.000000 1.000000 0.744245
0.000000 1.000000 0.737069
0.137185 1.000000 0.729273
0.305225 1.000000 0.721222
0.486762 1.000000 0.713288
0.669027 1.000000 0.705852
0.839080 1.000000 0.699295
0.983880 1.000000 0.694005
1.000000 1.000000 0.690367
0.000000 0.000000 1.000000
0.078315 0.000000 1.000000
0.199127 0.000000 1.000000
0.342172 0.000000 1.000000
0.497231 0.000000 1.000000
0.653929 0.000000 1.000000
0.801680 0.000000 1.000000
0.929625 0.000000 1.000000
1.000000 0.000000 1.000000
0.000000 0.081620 1.000000
0.070683 0.079277 1.000000
0.193411 0.076052 1.000000
0.339146 0.072216 1.000000
0.497530 0.068048 1.000000
0.657970 0.063829 1.000000
0.809589 0.059852 1.000000
0.941187 0.056415 1.000000
1.000000 0.053829 1.000000
0.000000 0.206522 1.000000
0.060454 0.204194 1.000000
0.185723 0.200960 1.000000
0.334757 0.197096 1.000000
0.496982 0.192884 1.000000
0.661525 0.188615 1.000000
0.817181 0.184588 1.000000
0.952392 0.181113 1.000000
1.000000 0.178507 1.000000
0.000000 0.353750 1.000000
0.048504 0.351443 1.000000
0.176733 0.348203 1.000000
0.329436 0.344313 1.000000
0.495760 0.340061 1.000000
0.664509 0.335747 0.996526
0.824131 0.331679 0.984858
0.962712 0.328176 0.973740
1.000000 0.325565 0.963542
0.000000 0.512418 1.000000
0.035718 0.510128 1.000000
0.167121 0.506878 0.991541
0.323623 0.502957 0.979940
0.494044 0.498662 0.967967
0.666844 0.494303 0.955972
0.830121 0.490195 0.944318
0.971625 0.486666 0.933373
1.000000 0.484053 0.923519
0.000000 0.671544 0.972282
0.022986 0.669258 0.962259
0.157577 0.665983 0.951309
0.317766 0.662018 0.939772
0.492025 0.657669 0.928000
0.668463 0.653254 0.916353
0.834846 0.649097 0.905202
0.978621 0.645535 0.894924
1.000000 0.642909 0.885906
0.000000 0.820041 0.933499
0.011212 0.817733 0.923771
0.148797 0.814409 0.913238
0.312325 0.810377 0.902251
0.489906 0.805953 0.891169
0.669311 0.801462 0.880364
0.838008 0.797240 0.870212
0.983200 0.793625 0.861100
1.000000 0.790966 0.853417
0.000000 0.946713 0.898588
0.001309 0.944346 0.889637
0.141493 0.940940 0.880008
0.307769 0.936811 0.870062
0.487896 0.932285 0.860169
0.669339 0.927696 0.850707
0.839320 0.923384 0.842060
0.984871 0.919694 0.834619
1.000000 0.916974 0.828776
0.000000 1.000000 0.870223
0.000000 1.000000 0.862536
0.136380 1.000000 0.854305
0.304574 1.000000 0.845900
0.486213 1.000000 0.837700
0.668507 1.000000 0.830091
0.838500 1.000000 0.823461
0.983147 1.000000 0.818203
1.000000 1.000000 0.814707
0.000000 0.000000 1.000000
0.077429 0.000000 1.000000
0.198403 0.000000 1.000000
0.341688 0.000000 1.000000
0.497055 0.000000 1.000000
0.654112 0.000000 1.000000
0.802243 0.000000 1.000000
0.930558 0.000000 1.000000
1.000000 0.000000 1.000000
0.000000 0.080671 1.000000
0.069874 0.078330 1.000000
0.192839 0.075105 1.000000
0.338888 0.071267 1.000000
0.497645 0.067096 1.000000
0.658493 0.062873 1.000000
0.810521 0.058892 1.000000
0.942495 0.055452 1.000000
1.000000 0.052865 1.000000
0.000000 0.205606 1.000000
0.059709 0.203281 1.000000
0.185267 0.200047 1.000000
0.334665 0.196181 1.000000
0.497303 0.191966 1.000000
0.662277 0.187692 1.000000
0.818347 0.183662 1.000000
0.953919 0.180184 1.000000
1.000000 0.177579 1.000000
0.000000 0.352878 1.000000
0.047811 0.350573 1.000000
0.176360 0.347332 1.000000
0.329451 0.343439 1.000000
0.496200 0.339184 1.000000
0.665376 0.334865 1.000000
0.825392 0.330794 1.000000
0.964299 0.327288 1.000000
1.000000 0.324678 1.000000
0.000000 0.511592 1.000000
0.035060 0.509304 1.000000
0.166795 0.506052 1.000000
0.323685 0.502127 1.000000
0.494516 0.497828 1.000000
0.667713 0.493463 1.000000
0.831340 0.489351 1.000000
0.973112 0.485820 1.000000
1.000000 0.483205 1.000000
0.000000 0.670763 1.000000
0.022348 0.668477 1.000000
0.157260 0.665199 1.000000
0.317813 0.661228 1.000000
0.492442 0.656873 1.000000
0.669220 0.652451 1.000000
0.835883 0.648289 0.998864
0.979849 0.644722 0.988073
1.000000 0.642094 0.978589
0.000000 0.819296 1.000000
0.010578 0.816984 1.000000
0.148453 0.813654 1.000000
0.312295 0.809614 0.995749
0.490178 0.805182 0.984168
0.669840 0.800684 0.972910
0.838723 0.796454 0.962360
0.984008 0.792834 0.952905
1.000000 0.790170 0.944943
0.000000 0.945987 0.991923
0.000660 0.943614 0.982491
0.141082 0.940198 0.972429
0.307598 0.936059 0.962101
0.487934 0.931523 0.951885
0.669525 0.926924 0.942161
0.839572 0.922603 0.933319
0.985096 0.918905 0.925754
1.000000 0.916178 0.919862
0.000000 1.000000 0.962157
0.000000 1.000000 0.954169
0.135863 1.000000 0.945699
0.304198 1.000000 0.937121
0.485926 1.000000 0.928821
0.668231 1.000000 0.921186
0.838147 1.000000 0.914612
0.982625 1.000000 0.909493
1.000000 1.000000 0.906226
