SampleProject/assets/luts/cinematic.cube
# Generated by tools/scripts/make_lut.py (cinematic)
LUT_3D_SIZE 33
DOMAIN_MIN 0.0 0.0 0.0
DOMAIN_MAX 1.0 1.0 1.0
0.000000 0.000000 0.000000
0.018464 0.000000 0.000000
0.039402 0.000000 0.000000
0.062652 0.000000 0.000000
0.088053 0.000000 0.000000
0.115447 0.000000 0.000000
0.144674 0.000000 0.000000
0.175574 0.000000 0.000000
0.207988 0.000000 0.000000
0.241759 0.000000 0.000000
0.276726 0.000000 0.000000
0.312732 0.000000 0.000000
0.349616 0.000000 0.000000
0.387220 0.000000 0.000000
0.425385 0.000000 0.000000
0.463949 0.000000 0.000000
0.502753 0.000000 0.000000
0.541636 0.000000 0.000000
0.580436 0.000000 0.000000
0.618991 0.000000 0.000000
0.657138 0.000000 0.000000
0.694713 0.000000 0.000000
0.731551 0.000000 0.000000
0.767488 0.000000 0.000000
0.802355 0.000000 0.000000
0.835986 0.000000 0.000000
0.868212 0.000000 0.000000
0.898863 0.000000 0.000000
0.927769 0.000000 0.000000
0.954756 0.000000 0.000000
0.979652 0.000000 0.000000
1.000000 0.000000 0.000000
1.000000 0.000000 0.000000
0.000000 0.019215 0.000000
0.016623 0.018720 0.000000
0.037577 0.018159 0.000000
0.060852 0.017535 0.000000
0.086289 0.016854 0.000000
0.113728 0.016118 0.000000
0.143011 0.015334 0.000000
0.173979 0.014504 0.000000
0.206473 0.013633 0.000000
0.240335 0.012726 0.000000
0.275405 0.011787 0.000000
0.311526 0.010819 0.000000
0.348537 0.009827 0.000000
0.386279 0.008816 0.000000
0.424593 0.007790 0.000000
0.463317 0.006752 0.000000
0.502291 0.005708 0.000000
0.541353 0.004662 0.000000
0.580340 0.003618 0.000000
0.619090 0.002580 0.000000
0.657438 0.001553 0.000000
0.695220 0.000541 0.000000
0.732271 0.000000 0.000000
0.768422 0.000000 0.000000
0.803507 0.000000 0.000000
0.837356 0.000000 0.000000
0.869800 0.000000 0.000000
0.900667 0.000000 0.000000
0.929784 0.000000 0.000000
0.956979 0.000000 0.000000
0.982077 0.000000 0.000000
1.000000 0.000000 0.000000
1.000000 0.000000 0.000000
0.000000 0.041003 0.000000
0.014544 0.040508 0.000000
0.035526 0.039947 0.000000
0.058839 0.039322 0.000000
0.084324 0.038640 0.000000
0.111822 0.037904 0.000000
0.141176 0.037119 0.000000
0.172226 0.036287 0.000000
0.204815 0.035415 0.000000
0.238783 0.034506 0.000000
0.273972 0.033564 0.000000
0.310223 0.032594 0.000000
0.347376 0.031600 0.000000
0.385271 0.030586 0.000000
0.423748 0.029556 0.000000
0.462646 0.028515 0.000000
0.501803 0.027467 0.000000
0.541056 0.026417 0.000000
0.580243 0.025369 0.000000
0.619199 0.024327 0.000000
0.657759 0.023295 0.000000
0.695758 0.022279 0.000000
0.733029 0.021282 0.000000
0.769403 0.020310 0.000000
0.804712 0.019366 0.000000
0.838785 0.018455 0.000000
0.871451 0.017582 0.000000
0.902537 0.016752 0.000000
0.931870 0.015968 0.000000
0.959274 0.015236 0.000000
0.984572 0.014561 0.000000
1.000000 0.013947 0.000000
1.000000 0.013399 0.000000
0.000000 0.065194 0.000000
0.012243 0.064699 0.000000
0.033264 0.064137 0.000000
0.056627 0.063513 0.000000
0.082172 0.062830 0.000000
0.109743 0.062094 0.000000
0.139181 0.061307 0.000000
0.170328 0.060474 0.000000
0.203026 0.059600 0.000000
0.237115 0.058689 0.000000
0.272436 0.057745 0.000000
0.308831 0.056773 0.000000
0.346140 0.055776 0.000000
0.384202 0.054759 0.000000
0.422856 0.053726 0.000000
0.461940 0.052681 0.000000
0.501292 0.051630 0.000000
0.540748 0.050576 0.000000
0.580145 0.049524 0.000000
0.619317 0.048478 0.000000
0.658099 0.047442 0.000000
0.696324 0.046422 0.000000
0.733822 0.045421 0.000000
0.770426 0.044444 0.000000
0.805965 0.043495 0.000000
0.840267 0.042580 0.000000
0.873159 0.041703 0.000000
0.904468 0.040869 0.000000
0.934017 0.040081 0.000000
0.961631 0.039346 0.000000
0.987130 0.038667 0.000000
1.000000 0.038050 0.000000
1.000000 0.037500 0.000000
0.000000 0.091619 0.000000
0.009737 0.091124 0.000000
0.030807 0.090563 0.000000
0.054230 0.089938 0.000000
0.079849 0.089255 0.000000
0.107505 0.088517 0.000000
0.137040 0.087730 0.000000
0.168296 0.086896 0.000000
0.201115 0.086020 0.000000
0.235338 0.085107 0.000000
0.270806 0.084161 0.000000
0.307359 0.083186 0.000000
0.344836 0.082187 0.000000
0.383077 0.081167 0.000000
0.421920 0.080131 0.000000
0.461202 0.079083 0.000000
0.500760 0.078028 0.000000
0.540431 0.076970 0.000000
0.580048 0.075914 0.000000
0.619446 0.074864 0.000000
0.658458 0.073825 0.000000
0.696915 0.072800 0.000000
0.734649 0.071795 0.000000
0.771488 0.070814 0.000000
0.807262 0.069862 0.000000
0.841796 0.068943 0.000000
0.874918 0.068062 0.000000
0.906451 0.067223 0.000000
0.936218 0.066433 0.000000
0.964041 0.065694 0.000000
0.989741 0.065012 0.000000
1.000000 0.064393 0.000000
1.000000 0.063840 0.000000
0.000000 0.120109 0.000000
0.007041 0.119615 0.000000
0.028170 0.119053 0.000000
0.051665 0.118429 0.000000
0.077367 0.117745 0.000000
0.105119 0.117007 0.000000
0.134763 0.116218 0.000000
0.166141 0.115384 0.000000
0.199095 0.114507 0.000000
0.233464 0.113592 0.000000
0.269091 0.112644 0.000000
0.305813 0.111666 0.000000
0.343471 0.110664 0.000000
0.381903 0.109641 0.000000
0.420946 0.108602 0.000000
0.460437 0.107551 0.000000
0.500212 0.106493 0.000000
0.540106 0.105432 0.000000
0.579952 0.104372 0.000000
0.619584 0.103318 0.000000
0.658833 0.102275 0.000000
0.697531 0.101246 0.000000
0.735505 0.100237 0.000000
0.772585 0.099252 0.000000
0.808597 0.098296 0.000000
0.843368 0.097373 0.000000
0.876721 0.096489 0.000000
0.908479 0.095647 0.000000
0.938464 0.094853 0.000000
0.966496 0.094112 0.000000
0.992394 0.093428 0.000000
1.000000 0.092806 0.000000
1.000000 0.092251 0.000000
0.000000 0.150495 0.000000
0.004171 0.150002 0.000000
0.025368 0.149441 0.000000
0.048944 0.148816 0.000000
0.074740 0.148133 0.000000
0.102599 0.147394 0.000000
0.132364 0.146605 0.000000
0.163875 0.145768 0.000000
0.196975 0.144890 0.000000
0.231502 0.143974 0.000000
0.267298 0.143024 0.000000
0.304202 0.142044 0.000000
0.342051 0.141039 0.000000
0.380685 0.140014 0.000000
0.419938 0.138972 0.000000
0.459648 0.137918 0.000000
0.499649 0.136856 0.000000
0.539775 0.135791 0.000000
0.579858 0.134728 0.000000
0.619732 0.133671 0.000000
0.659225 0.132623 0.000000
0.698168 0.131591 0.000000
0.736388 0.130579 0.000000
0.773712 0.129590 0.000000
0.809967 0.128630 0.000000
0.844975 0.127704 0.000000
0.878561 0.126817 0.000000
0.910545 0.125972 0.000000
0.940747 0.125175 0.000000
0.968987 0.124431 0.000000
0.995082 0.123745 0.000000
1.000000 0.123121 0.000000
1.000000 0.122565 0.000000
0.000000 0.182609 0.000000
0.001142 0.182116 0.000000
0.022417 0.181556 0.000000
0.046082 0.180932 0.000000
0.071983 0.180248 0.000000
0.099960 0.179509 0.000000
0.129855 0.178719 0.000000
0.161510 0.177882 0.000000
0.194766 0.177002 0.000000
0.229462 0.176084 0.000000
0.265439 0.175132 0.000000
0.302534 0.174151 0.000000
0.340585 0.173143 0.000000
0.379429 0.172115 0.000000
0.418902 0.171071 0.000000
0.458839 0.170014 0.000000
0.499074 0.168949 0.000000
0.539440 0.167881 0.000000
0.579768 0.166814 0.000000
0.619888 0.165753 0.000000
0.659631 0.164703 0.000000
0.698824 0.163667 0.000000
0.737294 0.162651 0.000000
0.774866 0.161659 0.000000
0.811364 0.160696 0.000000
0.846612 0.159767 0.000000
0.880431 0.158876 0.000000
0.912641 0.158029 0.000000
0.943060 0.157229 0.000000
0.971506 0.156483 0.000000
0.997793 0.155795 0.000000
1.000000 0.155170 0.000000
1.000000 0.154613 0.000000
0.000000 0.216281 0.000000
0.000000 0.215790 0.000000
0.019330 0.215230 0.000000
0.043095 0.214607 0.000000
0.069108 0.213923 0.000000
0.097212 0.213184 0.000000
0.127248 0.212393 0.000000
0.159057 0.211555 0.000000
0.192479 0.210675 0.000000
0.227354 0.209755 0.000000
0.263520 0.208801 0.000000
0.300816 0.207817 0.000000
0.339078 0.206808 0.000000
0.378142 0.205777 0.000000
0.417843 0.204730 0.000000
0.458015 0.203670 0.000000
0.498492 0.202602 0.000000
0.539103 0.201531 0.000000
0.579681 0.200461 0.000000
0.620054 0.199397 0.000000
0.660051 0.198343 0.000000
0.699498 0.197304 0.000000
0.738220 0.196285 0.000000
0.776042 0.195290 0.000000
0.812786 0.194324 0.000000
0.848274 0.193392 0.000000
0.882326 0.192498 0.000000
0.914760 0.191649 0.000000
0.945394 0.190847 0.000000
0.974042 0.190099 0.000000
1.000000 0.189409 0.000000
1.000000 0.188783 0.000000
1.000000 0.188225 0.000000
0.000000 0.251343 0.000000
0.000000 0.250853 0.000000
0.016125 0.250295 0.000000
0.039997 0.249672 0.000000
0.066131 0.248989 0.000000
0.094371 0.248249 0.000000
0.124556 0.247458 0.000000
0.156527 0.246619 0.000000
0.190125 0.245738 0.000000
0.225187 0.244817 0.000000
0.261552 0.243861 0.000000
0.299057 0.242875 0.000000
0.337537 0.241864 0.000000
0.376829 0.240831 0.000000
0.416765 0.239781 0.000000
0.457180 0.238718 0.000000
0.497903 0.237648 0.000000
0.538767 0.236573 0.000000
0.579599 0.235500 0.000000
0.620229 0.234433 0.000000
0.660483 0.233376 0.000000
0.700187 0.232334 0.000000
0.739163 0.231311 0.000000
0.777236 0.230314 0.000000
0.814227 0.229345 0.000000
0.849955 0.228410 0.000000
0.884238 0.227514 0.000000
0.916895 0.226662 0.000000
0.947740 0.225859 0.000000
0.976589 0.225109 0.000000
1.000000 0.224418 0.000000
1.000000 0.223791 0.000000
1.000000 0.223233 0.000000
0.000000 0.287626 0.000000
0.000000 0.287138 0.000000
0.012815 0.286580 0.000000
0.036801 0.285958 0.000000
0.063065 0.285275 0.000000
0.091448 0.284536 0.000000
0.121791 0.283744 0.000000
0.153933 0.282905 0.000000
0.187714 0.282022 0.000000
0.222971 0.281100 0.000000
0.259543 0.280143 0.000000
0.297264 0.279155 0.000000
0.335971 0.278142 0.000000
0.375496 0.277106 0.000000
0.415674 0.276054 0.000000
0.456336 0.274989 0.000000
0.497312 0.273915 0.000000
0.538432 0.272838 0.000000
0.579523 0.271762 0.000000
0.620413 0.270692 0.000000
0.660927 0.269632 0.000000
0.700889 0.268587 0.000000
0.740121 0.267561 0.000000
0.778445 0.266561 0.000000
0.815681 0.265589 0.000000
0.851648 0.264652 0.000000
0.886162 0.263754 0.000000
0.919038 0.262900 0.000000
0.950092 0.262095 0.000000
0.979136 0.261344 0.000000
1.000000 0.260652 0.000000
1.000000 0.260025 0.000000
1.000000 0.259466 0.000000
0.000000 0.324960 0.000000
0.000000 0.324473 0.000000
0.009416 0.323917 0.000000
0.033524 0.323296 0.000000
0.059924 0.322614 0.000000
0.088458 0.321875 0.000000
0.118966 0.321083 0.000000
0.151286 0.320243 0.000000
0.185257 0.319359 0.000000
0.220717 0.318436 0.000000
0.257501 0.317477 0.000000
0.295446 0.316488 0.000000
0.334384 0.315472 0.000000
0.374150 0.314434 0.000000
0.414574 0.313379 0.000000
0.455488 0.312312 0.000000
0.496721 0.311235 0.000000
0.538101 0.310156 0.000000
0.579454 0.309077 0.000000
0.620606 0.308004 0.000000
0.661381 0.306941 0.000000
0.701602 0.305893 0.000000
0.741090 0.304865 0.000000
0.779665 0.303862 0.000000
0.817146 0.302888 0.000000
0.853348 0.301948 0.000000
0.888089 0.301048 0.000000
0.921183 0.300193 0.000000
0.952441 0.299386 0.000000
0.981676 0.298634 0.000000
1.000000 0.297942 0.000000
1.000000 0.297314 0.000000
1.000000 0.296755 0.000000
0.000000 0.363176 0.000000
0.000000 0.362691 0.000000
0.005944 0.362137 0.000000
0.030179 0.361516 0.000000
0.056723 0.360834 0.000000
0.085414 0.360095 0.000000
0.116093 0.359303 0.000000
0.148597 0.358463 0.000000
0.182765 0.357578 0.000000
0.218434 0.356654 0.000000
0.255437 0.355693 0.000000
0.293610 0.354702 0.000000
0.332786 0.353685 0.000000
0.372796 0.352645 0.000000
0.413471 0.351588 0.000000
0.454641 0.350517 0.000000
0.496134 0.349439 0.000000
0.537775 0.348356 0.000000
0.579392 0.347274 0.000000
0.620807 0.346199 0.000000
0.661845 0.345133 0.000000
0.702325 0.344082 0.000000
0.742067 0.343052 0.000000
0.780892 0.342046 0.000000
0.818614 0.341070 0.000000
0.855051 0.340129 0.000000
0.890015 0.339227 0.000000
0.923321 0.338369 0.000000
0.954779 0.337562 0.000000
0.984199 0.336809 0.000000
1.000000 0.336116 0.000000
1.000000 0.335488 0.000000
1.000000 0.334930 0.000000
0.000000 0.402104 0.000000
0.000000 0.401621 0.000000
0.002413 0.401068 0.000000
0.026782 0.400448 0.000000
0.053474 0.399767 0.000000
0.082328 0.399028 0.000000
0.113184 0.398236 0.000000
0.145879 0.397395 0.000000
0.180249 0.396510 0.000000
0.216131 0.395584 0.000000
0.253359 0.394622 0.000000
0.291765 0.393629 0.000000
0.331182 0.392610 0.000000
0.371441 0.391568 0.000000
0.412370 0.390508 0.000000
0.453798 0.389435 0.000000
0.495552 0.388354 0.000000
0.537458 0.387269 0.000000
0.579339 0.386185 0.000000
0.621018 0.385106 0.000000
0.662316 0.384038 0.000000
0.703054 0.382985 0.000000
0.743050 0.381952 0.000000
0.782121 0.380943 0.000000
0.820083 0.379965 0.000000
0.856749 0.379022 0.000000
0.891933 0.378118 0.000000
0.925446 0.377259 0.000000
0.957098 0.376451 0.000000
0.986697 0.375697 0.000000
1.000000 0.375003 0.000000
1.000000 0.374375 0.000000
1.000000 0.373818 0.000000
0.000000 0.441573 0.000000
0.000000 0.441092 0.000000
0.000000 0.440541 0.000000
0.023347 0.439922 0.000000
0.050192 0.439242 0.000000
0.079214 0.438503 0.000000
0.110252 0.437711 0.000000
0.143142 0.436869 0.000000
0.177720 0.435983 0.000000
0.213820 0.435056 0.000000
0.251276 0.434093 0.000000
0.289919 0.433098 0.000000
0.329580 0.432077 0.000000
0.370090 0.431033 0.000000
0.411275 0.429971 0.000000
0.452964 0.428895 0.000000
0.494981 0.427811 0.000000
0.537150 0.426724 0.000000
0.579295 0.425637 0.000000
0.621237 0.424555 0.000000
0.662796 0.423484 0.000000
0.703789 0.422429 0.000000
0.744036 0.421393 0.000000
0.783350 0.420383 0.000000
0.821546 0.419402 0.000000
0.858438 0.418457 0.000000
0.893836 0.417552 0.000000
0.927550 0.416692 0.000000
0.959390 0.415882 0.000000
0.989162 0.415128 0.000000
1.000000 0.414434 0.000000
1.000000 0.413806 0.000000
1.000000 0.413249 0.000000
0.000000 0.481414 0.000000
0.000000 0.480935 0.000000
0.000000 0.480385 0.000000
0.019888 0.479768 0.000000
0.046891 0.479088 0.000000
0.076086 0.478349 0.000000
0.107311 0.477557 0.000000
0.140400 0.476715 0.000000
0.175188 0.475827 0.000000
0.211510 0.474899 0.000000
0.249197 0.473934 0.000000
0.288079 0.472938 0.000000
0.327987 0.471914 0.000000
0.368750 0.470868 0.000000
0.410192 0.469804 0.000000
0.452142 0.468726 0.000000
0.494422 0.467639 0.000000
0.536855 0.466549 0.000000
0.579263 0.465459 0.000000
0.621465 0.464375 0.000000
0.663281 0.463302 0.000000
0.704528 0.462243 0.000000
0.745021 0.461206 0.000000
0.784574 0.460193 0.000000
0.823000 0.459210 0.000000
0.860112 0.458263 0.000000
0.895718 0.457356 0.000000
0.929627 0.456495 0.000000
0.961648 0.455684 0.000000
0.991585 0.454929 0.000000
1.000000 0.454235 0.000000
1.000000 0.453608 0.000000
1.000000 0.453052 0.000000
0.000000 0.521455 0.000000
0.000000 0.520978 0.000000
0.000000 0.520429 0.000000
0.016421 0.519813 0.000000
0.043586 0.519133 0.000000
0.072957 0.518395 0.000000
0.104371 0.517602 0.000000
0.137663 0.516759 0.000000
0.172665 0.515871 0.000000
0.209211 0.514941 0.000000
0.247131 0.513975 0.000000
0.286255 0.512977 0.000000
0.326411 0.511951 0.000000
0.367426 0.510903 0.000000
0.409127 0.509836 0.000000
0.451337 0.508755 0.000000
0.493878 0.507666 0.000000
0.536573 0.506573 0.000000
0.579242 0.505481 0.000000
0.621703 0.504394 0.000000
0.663773 0.503318 0.000000
0.705268 0.502257 0.000000
0.746002 0.501217 0.000000
0.785789 0.500202 0.000000
0.824440 0.499217 0.000000
0.861765 0.498268 0.000000
0.897572 0.497360 0.000000
0.931670 0.496497 0.000000
0.963863 0.495685 0.000000
0.993958 0.494930 0.000000
1.000000 0.494236 0.000000
1.000000 0.493608 0.000000
1.000000 0.493053 0.000000
0.000000 0.561525 0.000000
0.000000 0.561050 0.000000
0.000000 0.560502 0.000000
0.012960 0.559887 0.000000
0.040290 0.559208 0.000000
0.069840 0.558469 0.000000
0.101447 0.557676 0.000000
0.134943 0.556832 0.000000
0.170161 0.555943 0.000000
0.206933 0.555012 0.000000
0.245087 0.554044 0.000000
0.284453 0.553044 0.000000
0.324858 0.552016 0.000000
0.366126 0.550965 0.000000
0.408084 0.549895 0.000000
0.450552 0.548812 0.000000
0.493354 0.547720 0.000000
0.536308 0.546624 0.000000
0.579234 0.545529 0.000000
0.621949 0.544440 0.000000
0.664269 0.543361 0.000000
0.706008 0.542297 0.000000
0.746979 0.541254 0.000000
0.786993 0.540237 0.000000
0.825861 0.539251 0.000000
0.863392 0.538300 0.000000
0.899393 0.537390 0.000000
0.933671 0.536526 0.000000
0.966029 0.535713 0.000000
0.996272 0.534957 0.000000
1.000000 0.534262 0.000000
1.000000 0.533635 0.000000
1.000000 0.533080 0.000000
0.000000 0.601452 0.000000
0.000000 0.600979 0.000000
0.000000 0.600432 0.000000
0.009521 0.599818 0.000000
0.037017 0.599139 0.000000
0.066749 0.598400 0.000000
0.098550 0.597606 0.000000
0.132252 0.596762 0.000000
0.167688 0.595871 0.000000
0.204686 0.594938 0.000000
0.243075 0.593968 0.000000
0.282683 0.592966 0.000000
0.323335 0.591935 0.000000
0.364856 0.590882 0.000000
0.407068 0.589810 0.000000
0.449793 0.588724 0.000000
0.492852 0.587629 0.000000
0.536062 0.586530 0.000000
0.579241 0.585432 0.000000
0.622206 0.584340 0.000000
0.664769 0.583258 0.000000
0.706746 0.582192 0.000000
0.747946 0.581146 0.000000
0.788181 0.580127 0.000000
0.827259 0.579138 0.000000
0.864988 0.578185 0.000000
0.901175 0.577273 0.000000
0.935623 0.576408 0.000000
0.968136 0.575594 0.000000
0.998518 0.574837 0.000000
1.000000 0.574142 0.000000
1.000000 0.573515 0.000000
1.000000 0.572961 0.000000
0.000000 0.641064 0.000000
0.000000 0.640592 0.000000
0.000000 0.640047 0.000000
0.006118 0.639433 0.000000
0.033783 0.638754 0.000000
0.063697 0.638015 0.000000
0.095694 0.637220 0.000000
0.129603 0.636374 0.000000
0.165256 0.635482 0.000000
0.202481 0.634547 0.000000
0.241104 0.633575 0.000000
0.280953 0.632570 0.000000
0.321851 0.631537 0.000000
0.363621 0.630481 0.000000
0.406086 0.629406 0.000000
0.449064 0.628317 0.000000
0.492375 0.627219 0.000000
0.535836 0.626117 0.000000
0.579264 0.625016 0.000000
0.622471 0.623921 0.000000
0.665273 0.622836 0.000000
0.707480 0.621767 0.000000
0.748903 0.620719 0.000000
0.789350 0.619697 0.000000
0.828630 0.618705 0.000000
0.866548 0.617750 0.000000
0.902910 0.616837 0.000000
0.937519 0.615970 0.000000
0.970179 0.615155 0.000000
1.000000 0.614397 0.000000
1.000000 0.613702 0.000000
1.000000 0.613075 0.000000
1.000000 0.612521 0.000000
0.000000 0.680189 0.000000
0.000000 0.679718 0.000000
0.000000 0.679173 0.000000
0.002766 0.678559 0.000000
0.030601 0.677880 0.000000
0.060698 0.677140 0.000000
0.092890 0.676345 0.000000
0.127007 0.675497 0.000000
0.162877 0.674603 0.000000
0.200327 0.673666 0.000000
0.239183 0.672692 0.000000
0.279271 0.671684 0.000000
0.320412 0.670649 0.000000
0.362429 0.669589 0.000000
0.405141 0.668511 0.000000
0.448368 0.667419 0.000000
0.491927 0.666318 0.000000
0.535634 0.665213 0.000000
0.579303 0.664108 0.000000
0.622747 0.663010 0.000000
0.665779 0.661922 0.000000
0.708209 0.660850 0.000000
0.749845 0.659799 0.000000
0.790496 0.658774 0.000000
0.829968 0.657780 0.000000
0.868066 0.656823 0.000000
0.904593 0.655907 0.000000
0.939353 0.655039 0.000000
0.972148 0.654222 0.000000
1.000000 0.653463 0.000000
1.000000 0.652768 0.000000
1.000000 0.652140 0.000000
1.000000 0.651586 0.000000
0.000000 0.718652 0.000000
0.000000 0.718183 0.000000
0.000000 0.717638 0.000000
0.000000 0.717024 0.000000
0.027485 0.716344 0.000000
0.057766 0.715604 0.000000
0.090153 0.714807 0.000000
0.124476 0.713958 0.000000
0.160561 0.713061 0.000000
0.198235 0.712122 0.000000
0.237322 0.711145 0.000000
0.277645 0.710135 0.000000
0.319026 0.709096 0.000000
0.361285 0.708033 0.000000
0.404241 0.706952 0.000000
0.447711 0.705856 0.000000
0.491512 0.704752 0.000000
0.535457 0.703643 0.000000
0.579360 0.702535 0.000000
0.623034 0.701433 0.000000
0.666288 0.700342 0.000000
0.708931 0.699266 0.000000
0.750772 0.698212 0.000000
0.791616 0.697184 0.000000
0.831269 0.696188 0.000000
0.869536 0.695228 0.000000
0.906218 0.694310 0.000000
0.941118 0.693440 0.000000
0.974036 0.692622 0.000000
1.000000 0.691862 0.000000
1.000000 0.691165 0.000000
1.000000 0.690537 0.000000
1.000000 0.689983 0.000000
0.000000 0.756282 0.000000
0.000000 0.755813 0.000000
0.000000 0.755268 0.000000
0.000000 0.754654 0.000000
0.024450 0.753973 0.000000
0.054914 0.753231 0.000000
0.087495 0.752432 0.000000
0.122022 0.751581 0.000000
0.158321 0.750682 0.000000
0.196216 0.749740 0.000000
0.235529 0.748760 0.000000
0.276084 0.747747 0.000000
0.317700 0.746705 0.000000
0.360196 0.745639 0.000000
0.403390 0.744553 0.000000
0.447096 0.743454 0.000000
0.491132 0.742346 0.000000
0.535308 0.741233 0.000000
0.579438 0.740121 0.000000
0.623331 0.739016 0.000000
0.666797 0.737921 0.000000
0.709644 0.736842 0.000000
0.751679 0.735784 0.000000
0.792706 0.734753 0.000000
0.832530 0.733754 0.000000
0.870954 0.732792 0.000000
0.907780 0.731871 0.000000
0.942807 0.730999 0.000000
0.975837 0.730179 0.000000
1.000000 0.729417 0.000000
1.000000 0.728720 0.000000
1.000000 0.728091 0.000000
1.000000 0.727537 0.000000
0.000000 0.792903 0.000000
0.000000 0.792434 0.000000
0.000000 0.791889 0.000000
0.000000 0.791274 0.000000
0.021511 0.790592 0.000000
0.052155 0.789848 0.000000
0.084929 0.789047 0.000000
0.119658 0.788194 0.000000
0.156167 0.787292 0.000000
0.194279 0.786347 0.000000
0.233815 0.785364 0.000000
0.274597 0.784347 0.000000
0.316442 0.783301 0.000000
0.359169 0.782231 0.000000
0.402593 0.781142 0.000000
0.446529 0.780038 0.000000
0.490791 0.778926 0.000000
0.535189 0.777809 0.000000
0.579536 0.776693 0.000000
0.623639 0.775584 0.000000
0.667308 0.774485 0.000000
0.710348 0.773402 0.000000
0.752565 0.772341 0.000000
0.793763 0.771307 0.000000
0.833746 0.770304 0.000000
0.872315 0.769339 0.000000
0.909270 0.768416 0.000000
0.944413 0.767541 0.000000
0.977541 0.766719 0.000000
1.000000 0.765956 0.000000
1.000000 0.765256 0.000000
1.000000 0.764627 0.000000
1.000000 0.764072 0.000000
0.000000 0.828341 0.000000
0.000000 0.827872 0.000000
0.000000 0.827327 0.000000
0.000000 0.826710 0.000000
0.018681 0.826027 0.000000
0.049505 0.825281 0.000000
0.082468 0.824477 0.000000
0.117395 0.823621 0.000000
0.154110 0.822716 0.000000
0.192435 0.821767 0.000000
0.232189 0.820780 0.000000
0.273191 0.819759 0.000000
0.315259 0.818709 0.000000
0.358210 0.817635 0.000000
0.401857 0.816541 0.000000
0.446014 0.815434 0.000000
0.490492 0.814317 0.000000
0.535104 0.813196 0.000000
0.579657 0.812076 0.000000
0.623959 0.810962 0.000000
0.667818 0.809859 0.000000
0.711039 0.808772 0.000000
0.753427 0.807707 0.000000
0.794784 0.806669 0.000000
0.834912 0.805663 0.000000
0.873612 0.804694 0.000000
0.910685 0.803768 0.000000
0.945929 0.802891 0.000000
0.979143 0.802066 0.000000
1.000000 0.801301 0.000000
1.000000 0.800600 0.000000
1.000000 0.799969 0.000000
1.000000 0.799413 0.000000
0.000000 0.862422 0.000000
0.000000 0.861952 0.000000
0.000000 0.861406 0.000000
0.000000 0.860787 0.000000
0.015976 0.860102 0.000000
0.046975 0.859353 0.000000
0.080124 0.858547 0.000000
0.115246 0.857687 0.000000
0.152163 0.856778 0.000000
0.190694 0.855826 0.000000
0.230659 0.854835 0.000000
0.271876 0.853809 0.000000
0.314159 0.852755 0.000000
0.357325 0.851676 0.000000
0.401186 0.850578 0.000000
0.445554 0.849465 0.000000
0.490240 0.848344 0.000000
0.535053 0.847218 0.000000
0.579801 0.846093 0.000000
0.624291 0.844974 0.000000
0.668329 0.843867 0.000000
0.711718 0.842776 0.000000
0.754263 0.841707 0.000000
0.795764 0.840664 0.000000
0.836024 0.839655 0.000000
0.874842 0.838682 0.000000
0.912018 0.837753 0.000000
0.947349 0.836873 0.000000
0.980633 0.836046 0.000000
1.000000 0.835278 0.000000
1.000000 0.834575 0.000000
1.000000 0.833942 0.000000
1.000000 0.833385 0.000000
0.000000 0.894971 0.000000
0.000000 0.894500 0.000000
0.000000 0.893951 0.000000
0.000000 0.893331 0.000000
0.013409 0.892642 0.000000
0.044581 0.891890 0.000000
0.077911 0.891080 0.000000
0.113223 0.890217 0.000000
0.150335 0.889304 0.000000
0.189067 0.888347 0.000000
0.229237 0.887352 0.000000
0.270659 0.886322 0.000000
0.313150 0.885262 0.000000
0.356522 0.884178 0.000000
0.400587 0.883075 0.000000
0.445156 0.881957 0.000000
0.490038 0.880831 0.000000
0.535041 0.879700 0.000000
0.579972 0.878570 0.000000
0.624636 0.877446 0.000000
0.668839 0.876334 0.000000
0.712382 0.875238 0.000000
0.755070 0.874164 0.000000
0.796702 0.873118 0.000000
0.837078 0.872104 0.000000
0.875999 0.871128 0.000000
