SampleProject/assets/luts/cinematic.cube
# Generated by tools/scripts/make_lut.py (cinematic)
LUT_3D_SIZE 5
DOMAIN_MIN 0.0 0.0 0.0
DOMAIN_MAX 1.0 1.0 1.0
0.000000 0.000000 0.000000
0.207988 0.000000 0.000000
0.502753 0.000000 0.000000
0.802355 0.000000 0.000000
1.000000 0.000000 0.000000
0.000000 0.216281 0.000000
0.192479 0.210675 0.000000
0.498492 0.202602 0.000000
0.812786 0.194324 0.000000
1.000000 0.188225 0.000000
0.000000 0.521455 0.000000
0.172665 0.515871 0.000000
0.493878 0.507666 0.000000
0.824440 0.499217 0.000000
1.000000 0.493053 0.000000
0.000000 0.828341 0.000000
0.154110 0.822716 0.000000
0.490492 0.814317 0.000000
0.834912 0.805663 0.000000
1.000000 0.799413 0.000000
0.000000 1.000000 0.000000
0.142532 1.000000 0.000000
0.490068 1.000000 0.000000
0.841951 1.000000 0.000000
1.000000 1.000000 0.000000
0.000000 0.000000 0.258245
0.205945 0.000000 0.252091
0.501563 0.000000 0.242980
0.802477 0.000000 0.233190
1.000000 0.000000 0.225067
0.000000 0.214044 0.233189
0.191046 0.208444 0.225101
0.498506 0.200363 0.214152
0.814466 0.192072 0.202692
1.000000 0.185970 0.193201
0.000000 0.519395 0.194652
0.171585 0.513817 0.185371
0.494430 0.505602 0.173336
0.826599 0.497141 0.161026
1.000000 0.490977 0.151069
0.000000 0.826472 0.153934
0.153109 0.820840 0.144294
0.490895 0.812420 0.132055
0.836452 0.803745 0.119843
1.000000 0.797486 0.110421
0.000000 1.000000 0.122485
0.141315 1.000000 0.113421
0.489617 1.000000 0.101988
0.841758 1.000000 0.090951
1.000000 1.000000 0.083159
0.000000 0.000000 0.621053
0.203043 0.000000 0.613563
0.499598 0.000000 0.602300
0.801889 0.000000 0.589651
1.000000 0.000000 0.578083
0.000000 0.210903 0.588538
0.188758 0.205319 0.576829
0.497714 0.197241 0.561802
0.815364 0.188948 0.545925
1.000000 0.182855 0.531800
0.000000 0.516472 0.536330
0.169664 0.510911 0.522363
0.494148 0.502698 0.505548
0.827908 0.494236 0.488485
1.000000 0.488083 0.473925
0.000000 0.823776 0.479812
0.151276 0.818147 0.465641
0.490432 0.809716 0.449143
0.837066 0.801029 0.433066
1.000000 0.794767 0.420292
0.000000 1.000000 0.434517
0.139266 1.000000 0.422297
0.488252 1.000000 0.408350
0.840541 1.000000 0.395559
1.000000 1.000000 0.386888
0.000000 0.000000 0.983229
0.200219 0.000000 0.973826
0.497789 0.000000 0.959904
0.801508 0.000000 0.943964
1.000000 0.000000 0.928590
0.000000 0.207786 0.941603
0.186531 0.202218 0.925940
0.497017 0.194143 0.906575
0.816367 0.185850 0.886093
1.000000 0.179768 0.867219
0.000000 0.513578 0.874895
0.167779 0.508034 0.856153
0.493895 0.499822 0.834543
0.829211 0.491360 0.812786
1.000000 0.485216 0.793754
0.000000 0.821105 0.802570
0.149451 0.815477 0.784025
0.489924 0.807032 0.763500
0.837558 0.798330 0.743862
1.000000 0.792063 0.728114
0.000000 1.000000 0.744245
0.137185 1.000000 0.729273
0.486762 1.000000 0.713288
0.839080 1.000000 0.699295
1.000000 1.000000 0.690367
0.000000 0.000000 1.000000
0.198403 0.000000 1.000000
0.497055 0.000000 1.000000
0.802243 0.000000 1.000000
1.000000 0.000000 1.000000
0.000000 0.205606 1.000000
0.185267 0.200047 1.000000
0.497303 0.191966 1.000000
0.818347 0.183662 1.000000
1.000000 0.177579 1.000000
0.000000 0.511592 1.000000
0.166795 0.506052 1.000000
0.494516 0.497828 1.000000
0.831340 0.489351 1.000000
1.000000 0.483205 1.000000
0.000000 0.819296 1.000000
0.148453 0.813654 1.000000
0.490178 0.805182 0.984168
0.838723 0.796454 0.962360
1.000000 0.790170 0.944943
0.000000 1.000000 0.962157
0.135863 1.000000 0.945699
0.485926 1.000000 0.928821
0.838147 1.000000 0.914612
1.000000 1.000000 0.906226
